src/assets/images/icons/trash-2.svg

<svg width="24" height="24" viewBox="0 0 24 24" fill="none" xmlns="http://www.w3.org/2000/svg">
<path d="M3 6H5M5 6H21M5 6V20C5 20.5304 5.21071 21.0391 5.58579 21.4142C5.96086 21.7893 6.46957 22 7 22H17C17.5304 22 18.0391 21.7893 18.4142 21.4142C18.7893 21.0391 19 20.5304 19 20V6H5ZM8 6V4C8 3.46957 8.21071 2.96086 8.58579 2.58579C8.96086 2.21071 9.46957 2 10 2H14C14.5304 2 15.0391 2.21071 15.4142 2.58579C15.7893 2.96086 16 3.46957 16 4V6M10 11V17M14 11V17" stroke="#181D27" stroke-width="2" stroke-linecap="round" stroke-linejoin="round"/>
</svg>

<svg xmlns="http://www.w3.org/2000/svg" fill="none" viewBox="0 0 24 24"><path stroke="#181D27" stroke-linecap="round" stroke-linejoin="round" stroke-width="2" d="M3 6h2m0 0h16M5 6v14a2 2 0 0 0 2 2h10a2 2 0 0 0 2-2V6zm3 0V4a2 2 0 0 1 2-2h4a2 2 0 0 1 2 2v2m-6 5v6m4-6v6"/></svg>
